!!!OTL: Alte niederlaendische Tanzmelodie.
!!!ARE: Europa, Mitteleuropa, Deutschland
!!!SCT: A0309A
!!!YEM: Copyright 1995, estate of Helmut Schaffrath.
**kern
*M4/2
*met(c|)
*clefC3
*k[]
*G:mix
!LO:TX:a:t=mixolyd.
!LO:TX:a:t=Ick quam aldaer, ick weet wel waer, met heymelic ghſchalle.
{2G
=1
2.G
4G
2.B
4B
=2
2.d
4d
2.B}
{4B
=3
2.e
4e
2.B
4c/
=4
1d
2d}
{2G
=5
2.G
4G
2.B
4B
=6
2.d
4d
2.B}
{4B
=7
2.e
4e
2.B
4c/
=8
1d
2d}
{2d
=9
2.d
4d
2.d
4d
=10
2.B
4B
2.A}
{4A
=11
2.B
4A
2.G
4F
=12
2.E
4F
2.G
4A
=13
1B
1A
=14
1.G/ll}
==
!!!GTL: Tanz- und Kranzlieder
!!!AGN: Romanze, Ballade, Lied
!! Souterliedekens 1540 ad Ps. 132
!!!ONB: ESAC (Essen Associative Code) Database: ALTDEU
!!!AMT: simple quadruple
!!!AIN: vox
!!!EED: Helmut Schaffrath
!!!EEV: 1.0
!!!RDF**kern: l = terminal long
!!!AMD: Mixolydian
!!!URL-scan:  https://rosdok.uni-rostock.de/mcrviewer/recordIdentifier/rosdok_ppn738218359/iview2/phys_0463.iview2?x=-2231.2783251231526&y=1698.7014778330922&scale=0.2314709236031927&rotation=0&layout=singlePageLayout&logicalDiv=log_0012
!!!ENC: Anna Maria Matuszewska
!!!EEV: 2024/12/03
*-
